icons/fuel-11.svg

<?xml version="1.0" encoding="utf-8"?>
<!-- Generator: Adobe Illustrator 19.2.1, SVG Export Plug-In . SVG Version: 6.00 Build 0)  -->
<!DOCTYPE svg PUBLIC "-//W3C//DTD SVG 1.1//EN" "http://www.w3.org/Graphics/SVG/1.1/DTD/svg11.dtd">
<svg version="1.1" id="Layer_1" xmlns="http://www.w3.org/2000/svg" xmlns:xlink="http://www.w3.org/1999/xlink" x="0px" y="0px"
	 width="11px" height="11px" viewBox="0 0 11 11" style="enable-background:new 0 0 11 11;" xml:space="preserve">
<path d="M9.5,3H9V1.5l0,0C9,1.2239,8.7761,1,8.5,1S8,1.2239,8,1.5l0,0V3c0,0.5523,0.4477,1,1,1v4.25C9,8.3881,8.8881,8.5,8.75,8.5
	S8.5,8.3881,8.5,8.25V6.5C8.5,5.6716,7.8284,5,7,5V2c0-0.5523-0.4477-1-1-1H2C1.4477,1,1,1.4477,1,2v7c0,0.5523,0.4477,1,1,1h4
	c0.5523,0,1-0.4477,1-1V6c0.2761,0,0.5,0.2239,0.5,0.5v1.75c0,0.6904,0.5596,1.25,1.25,1.25S10,8.9404,10,8.25V3.5
	C10,3.2239,9.7761,3,9.5,3z M6,4.5C6.0056,4.7706,5.7908,4.9944,5.5202,5C5.5201,5,5.5201,5,5.52,5h-3
	C2.2384,5.0056,2.0056,4.7818,2,4.5002C2,4.5001,2,4.5001,2,4.5l0,0V3c0-0.2761,0.2239-0.5,0.5-0.5h3C5.7761,2.5,6,2.7239,6,3V4.5z"
	/>
</svg>

<svg id="Layer_1" data-name="Layer 1" xmlns="http://www.w3.org/2000/svg" width="11" height="11" viewBox="0 0 11 11">
  <title>fuel-11</title>
  <path d="M9.5,3H9V1.5H9a0.5,0.5,0,0,0-1,0H8V3A1,1,0,0,0,9,4V8.25a0.25,0.25,0,0,1-.5,0V6.5A1.5,1.5,0,0,0,7,5V2A1,1,0,0,0,6,1H2A1,1,0,0,0,1,2V9a1,1,0,0,0,1,1H6A1,1,0,0,0,7,9V6a0.5,0.5,0,0,1,.5.5V8.25a1.25,1.25,0,0,0,2.5,0V3.5A0.5,0.5,0,0,0,9.5,3ZM6,4.5a0.49,0.49,0,0,1-.48.5h-3A0.51,0.51,0,0,1,2,4.5H2V3a0.5,0.5,0,0,1,.5-0.5h3A0.5,0.5,0,0,1,6,3V4.5Z"/>
</svg>
